X:120
T:Danse de campagne
S:Laurence Beaudry
Z:robin.beech@mcgill.ca
M:4/4
L:1/8
K:D
d3dd2A2 | BcdB AFDF | e3e e2d2 | cdef ecBA |
d3dd2A2 | BcdB AFDF | GFEG FEDF | EDCE D4 :|
DEFG AAFA | BcdB A4 | BcdB AFDF | EDCD E4 |
DEFG AAFA | BcdB A4 | BcdB AFDF | EDCE D4 :|
